X: 1
T: Langstrom's Pony
R: jig
M: 6/8
L: 1/8
K: Amix
|:fed cAA|EAA cAA|fed cAA|BGB dcB|fed cAA|EAA cAA|faf gfe|dBG Bcd:||:cee dff|cee ecA|cee g2e|dBG Bcd|cee dff|cee efg|faf gfe|dBG Bcd:||:Ace a2f|ecA ecA|GBd g2e|dBG Bcd|eaf g2e|fed ecA|a2f gfe|dBG Bcd:||:AEA A2d|cAc ecA|AEA AB=c|BGB dcB|AEA A2d|cAc efg|faf gfe|dBG Bcd:|


Tune 61	Setting 27466

